X: 1
T: Fairy Dance Reel
C: Nathaniel Gow 1802
R: reel
Z: 2014 John Chambers <jc:trillian.mit.edu>
B: BSFC Tune Book XXVI-3
B: BSFC Session Tune Book 2016 p.56
S: SRSNH 3.9 handwritten MS by Barbara McOwen (in Concord Slow Scottish Jam collection)
P: ABAB...CD
M: C|
L: 1/8
K: D
de \
"A"|: "D"f2fd f2fd | "D"f2fd "A7"cAeA | "D"f2fd "G"gfed | "A7"cABc "D"defg :|
"B"|: "D"a2af "G"b2ba | "Em"g2ge "A7"a2ag | "D"f2fd "G"gfed | "A7"cABc "D"defg :|
%%center - - - - - - - - - -
"C"|: "D"fafd fafd | "D"fafd "A7"cdeg | "D"fdfa "G"gfed | "A7"cABc "D"defg :|
"D"[| "D"agfe "B7"^dfba | "Em"gfed "A7"ceag | "D"fdfa "G"gfed | "A7"cABc "D"de"d.C."fg |
    | "D"agfe "B7"^dfba | "Em"gfed "A7"ceag | "D"[f2A2D2]z2 "G"[g2B2D2G,2]z2 | "A7"[c2E2A,2]z2 "D"[d4F4A,4] |]


